X: 28175
T: Mrs Oswald Of Auchincruive's Favourite
R: jig
M: 6/8
K: Gmajor
B3cde|G3G2B|EFG ABc|BAG FED|
B2B cde|G3G2B|cBc AFD|1 G3G2D:|2 G3G2d||
g3gfd|gec BAG|ABc Bcd|EAG FED|
g3gfd|gec BAG|Aed cAF|G2GG2g|
baf gfd|gec BAG|ABc Bcd|EAG FED|
EFG ABc|FGA Bcd|efg afd|1 g2ed2c||2 g3g3||

